X: 42068
T: Waltz Of The Little Girls, The
R: waltz
M: 3/4
K: Gmajor
|:gf ed|B2 BA GA|B2 gf ed|B2 BA GB|c2 cB cd|
e2 ed cB|A2 AB cd|e2 ed ef|1 ed:|2 g2||
|:GB dg|f2 fe dB|GB eB dB|AB dg Af|g2 GB dg|
f2 fe dB|GB eB dB|AB dg Af|g2:|

